public/logos/B7.svg

<?xml version="1.0" encoding="UTF-8"?>
<svg xmlns="http://www.w3.org/2000/svg" xmlns:xlink="http://www.w3.org/1999/xlink" width="176pt" height="40.46pt" viewBox="0 0 176 40.46" version="1.1">
<defs>
<clipPath id="clip1">
  <path d="M 159 0 L 176 0 L 176 40.460938 L 159 40.460938 Z M 159 0 "/>
</clipPath>
<clipPath id="clip2">
  <path d="M 121 0 L 172 0 L 172 40.460938 L 121 40.460938 Z M 121 0 "/>
</clipPath>
</defs>
<g id="surface1">
<g clip-path="url(#clip1)" clip-rule="nonzero">
<path style=" stroke:none;fill-rule:nonzero;fill:rgb(91.752625%,26.402283%,11.859131%);fill-opacity:1;" d="M 173.320312 0.0234375 L 176 0.0234375 L 162.066406 40.460938 L 159.410156 40.460938 L 173.320312 0.0234375 "/>
</g>
<path style=" stroke:none;fill-rule:nonzero;fill:rgb(18.185425%,66.891479%,27.79541%);fill-opacity:1;" d="M 59.082031 22.847656 L 51.527344 22.847656 L 51.527344 7.050781 L 59.082031 7.050781 L 59.082031 22.847656 "/>
<path style=" stroke:none;fill-rule:nonzero;fill:rgb(18.185425%,66.891479%,27.79541%);fill-opacity:1;" d="M 47.9375 7.046875 L 40.371094 7.046875 L 40.371094 15.753906 L 33.304688 7.046875 L 25.757812 7.046875 L 25.757812 22.847656 L 33.289062 22.847656 L 33.289062 14.15625 L 40.476562 22.847656 L 47.9375 22.847656 L 47.9375 7.046875 "/>
<path style=" stroke:none;fill-rule:nonzero;fill:rgb(18.185425%,66.891479%,27.79541%);fill-opacity:1;" d="M 16.398438 7.046875 L 16.398438 7.050781 L 14.609375 7.050781 L 14.609375 17.289062 C 14.609375 18.160156 13.554688 18.867188 12.25 18.867188 L 9.890625 18.867188 C 8.585938 18.867188 7.527344 18.160156 7.527344 17.289062 L 7.527344 7.050781 L 4.71875 7.050781 C 4.71875 7.050781 4.714844 7.050781 4.714844 7.050781 L 0.0195312 7.050781 L 0.0195312 9.9375 C 0.0078125 10.023438 0 10.117188 0 10.210938 L 0 19.6875 C 0 21.433594 2.113281 22.847656 4.71875 22.847656 L 17.460938 22.847656 C 20.070312 22.847656 22.183594 21.433594 22.183594 19.6875 L 22.183594 7.046875 L 16.398438 7.046875 "/>
<path style=" stroke:none;fill-rule:nonzero;fill:rgb(18.185425%,66.891479%,27.79541%);fill-opacity:1;" d="M 76.339844 16.640625 L 78.246094 12.796875 L 80.144531 16.640625 L 76.339844 16.640625 M 83.203125 22.847656 L 90.625 22.847656 L 82.566406 7.054688 L 73.90625 7.054688 L 65.792969 22.867188 L 73.253906 22.867188 L 74.367188 20.617188 L 82.105469 20.617188 L 83.203125 22.847656 "/>
<path style=" stroke:none;fill-rule:nonzero;fill:rgb(18.185425%,66.891479%,27.79541%);fill-opacity:1;" d="M 100.4375 22.847656 L 93.117188 22.847656 L 93.117188 7.085938 L 100.4375 7.085938 L 100.4375 22.847656 "/>
<path style=" stroke:none;fill-rule:nonzero;fill:rgb(18.185425%,66.891479%,27.79541%);fill-opacity:1;" d="M 116.363281 13.347656 L 111.25 13.347656 L 111.25 11.0625 L 116.363281 11.0625 C 116.992188 11.0625 117.503906 11.574219 117.503906 12.203125 C 117.503906 12.835938 116.992188 13.347656 116.363281 13.347656 M 122.671875 15.695312 C 124.539062 15.695312 124.5 13.589844 124.5 13.589844 L 124.5 10.867188 C 124.5 7.410156 120.84375 7.089844 120.84375 7.089844 L 104.007812 7.085938 L 104.007812 22.847656 L 111.332031 22.847656 L 111.332031 17.40625 L 116.191406 17.40625 C 117.207031 17.40625 117.1875 18.421875 117.1875 18.421875 L 117.1875 22.847656 L 124.511719 22.847656 L 124.511719 18.421875 C 124.507812 15.878906 122.671875 15.695312 122.671875 15.695312 "/>
<g clip-path="url(#clip2)" clip-rule="nonzero">
<path style=" stroke:none;fill-rule:nonzero;fill:rgb(18.185425%,66.891479%,27.79541%);fill-opacity:1;" d="M 154.496094 22.949219 C 153.84375 26.039062 153.214844 29.011719 152.53125 32.238281 C 151.871094 29.023438 151.257812 26.046875 150.617188 22.941406 C 148.933594 23.609375 147.378906 24.226562 145.566406 24.945312 C 146.359375 23.386719 147.046875 22.027344 147.828125 20.488281 C 145.324219 19.914062 142.902344 19.359375 140.25 18.753906 C 142.851562 18.164062 145.242188 17.625 147.828125 17.039062 C 147.058594 15.546875 146.335938 14.148438 145.480469 12.492188 C 147.304688 13.230469 148.851562 13.859375 150.613281 14.570312 C 151.261719 11.464844 151.882812 8.503906 152.570312 5.222656 C 153.242188 8.5 153.851562 11.464844 154.492188 14.578125 C 156.207031 13.886719 157.78125 13.253906 159.613281 12.515625 C 158.78125 14.125 158.058594 15.519531 157.277344 17.03125 C 159.792969 17.601562 162.191406 18.144531 164.882812 18.753906 C 162.214844 19.359375 159.824219 19.902344 157.273438 20.484375 C 158.011719 21.925781 158.6875 23.257812 159.53125 24.910156 C 157.699219 24.195312 156.175781 23.605469 154.496094 22.949219 Z M 153.207031 0.0234375 L 121.554688 40.460938 L 158.15625 40.4375 L 171.964844 0.00390625 L 153.207031 0.0234375 "/>
</g>
</g>
</svg>

<svg xmlns="http://www.w3.org/2000/svg" width="176pt" height="53.947" viewBox="0 0 176 40.46"><defs><clipPath id="a"><path d="M159 0h17v40.46h-17Zm0 0"/></clipPath><clipPath id="b"><path d="M121 0h51v40.46h-51Zm0 0"/></clipPath></defs><g clip-path="url(#a)"><path d="M173.32.023H176l-13.934 40.438h-2.656z" style="stroke:none;fill-rule:nonzero;fill:#ea431e;fill-opacity:1"/></g><path d="M59.082 22.848h-7.555V7.05h7.555zM47.938 7.047H40.37v8.707l-7.066-8.707h-7.547v15.8h7.531v-8.69l7.188 8.69h7.46zM16.398 7.047v.004H14.61v10.238c0 .871-1.054 1.578-2.359 1.578H9.89c-1.304 0-2.363-.707-2.363-1.578V7.051H.02v2.887c-.012.085-.02.18-.02.273v9.477c0 1.746 2.113 3.16 4.719 3.16H17.46c2.61 0 4.723-1.414 4.723-3.16V7.047zM76.34 16.64l1.906-3.843 1.899 3.844zm6.863 6.207h7.422L82.566 7.055h-8.66l-8.113 15.812h7.46l1.114-2.25h7.738zM100.438 22.848h-7.32V7.086h7.32zM116.363 13.348h-5.113v-2.286h5.113a1.142 1.142 0 0 1 0 2.286m6.309 2.347c1.867 0 1.828-2.105 1.828-2.105v-2.723c0-3.457-3.656-3.777-3.656-3.777l-16.836-.004v15.762h7.324v-5.442h4.86c1.015 0 .996 1.016.996 1.016v4.426h7.324v-4.426c-.004-2.543-1.84-2.727-1.84-2.727" style="stroke:none;fill-rule:nonzero;fill:#2eab47;fill-opacity:1"/><g clip-path="url(#b)"><path d="M154.496 22.95c-.652 3.09-1.281 6.062-1.965 9.288-.66-3.215-1.273-6.191-1.914-9.297l-5.05 2.004c.792-1.558 1.48-2.918 2.261-4.457-2.504-.574-4.926-1.129-7.578-1.734 2.602-.59 4.992-1.129 7.578-1.715l-2.348-4.547c1.825.738 3.372 1.367 5.133 2.078.649-3.105 1.27-6.066 1.957-9.347.672 3.277 1.282 6.242 1.922 9.355l5.121-2.062-2.336 4.515 7.606 1.723a6481 6481 0 0 0-7.61 1.73c.739 1.442 1.415 2.774 2.258 4.426-1.832-.715-3.355-1.305-5.035-1.96M153.207.022l-31.652 40.438 36.601-.023L171.965.004z" style="stroke:none;fill-rule:nonzero;fill:#2eab47;fill-opacity:1"/></g></svg>
